icons/Apache-Light.svg

<?xml version="1.0" encoding="UTF-8"?>
<svg id="apache" width="256" height="256" fill="none" title="Apache" version="1.1" viewBox="0 0 256 256" xmlns="http://www.w3.org/2000/svg">
 <style>#apache {
    rect {fill: #15191C}

    @media (prefers-color-scheme: light) {
        rect {fill: #F4F2ED}
    }
}</style>
 <rect width="256" height="256" rx="40" fill="#f4f2ed"/>
 <path d="m162.04 33.851c-2.986 1.7514-7.955 6.7102-13.882 13.902l5.432 10.202c3.823-5.4186 7.701-10.312 11.568-14.45 0.308-0.3284 0.452-0.4817 0.452-0.4817-0.144 0.1533-0.309 0.3284-0.452 0.4817-1.267 1.3793-5.112 5.8455-10.907 14.668 5.586-0.2737 14.102-1.4122 21.153-2.5944 2.093-11.603-2.038-16.858-2.038-16.858s-5.244-8.4289-11.348-4.8275l0.022-0.0437z" fill="url(#linearGradient1)"/>
 <path d="m143.76 119.55c-0.694 0.121-1.399 0.252-2.137 0.373 0 0-0.011 0-0.011 0.011 0.374-0.055 0.738-0.11 1.101-0.165 0.342-0.076 0.695-0.142 1.047-0.219z" fill="#BD202E"/>
 <path d="m143.76 119.55c-0.694 0.121-1.399 0.252-2.137 0.373 0 0-0.011 0-0.011 0.011 0.374-0.055 0.738-0.11 1.101-0.165 0.342-0.076 0.695-0.142 1.047-0.219z" fill="#000"/>
 <path d="m145.63 110.69c-0.011 0-0.011 0-0.011 0.011 0.11-0.011 0.231-0.033 0.342-0.055 0.462-0.066 0.914-0.142 1.355-0.252-0.551 0.099-1.102 0.197-1.686 0.296z" fill="#BD202E"/>
 <path d="m145.63 110.69c-0.011 0-0.011 0-0.011 0.011 0.11-0.011 0.231-0.033 0.342-0.055 0.462-0.066 0.914-0.142 1.355-0.252-0.551 0.099-1.102 0.197-1.686 0.296z" fill="#000"/>
 <path d="m137.58 84.304c1.653-3.076 3.328-6.0754 5.013-8.9872 1.752-3.0432 3.537-5.9769 5.333-8.823 0.099-0.1642 0.22-0.3393 0.319-0.5035 1.774-2.7914 3.57-5.4843 5.366-8.0458l-5.432-10.202c-0.408 0.4926-0.815 0.9962-1.234 1.5216-1.575 1.9485-3.195 4.0284-4.87 6.2505-1.884 2.4959-3.812 5.1668-5.784 7.9692-1.807 2.5834-3.657 5.2872-5.508 8.1005-1.576 2.3863-3.14 4.8384-4.705 7.3561-0.055 0.0876-0.11 0.1861-0.165 0.2846l7.084 13.902c1.498-3.0103 3.041-5.9549 4.583-8.8229z" fill="url(#linearGradient2)"/>
 <path d="m105.3 162.57c-0.936 2.55-1.884 5.167-2.82 7.827-0.011 0.032-0.022 0.076-0.044 0.109-0.132 0.372-0.276 0.755-0.397 1.128-0.639 1.795-1.19 3.415-2.4567 7.082 2.0827 0.941 3.7567 3.437 5.3437 6.261-0.165-2.922-1.377-5.67-3.702-7.794 10.279 0.46 19.17-2.123 23.687-9.589 0.408-0.668 0.783-1.357 1.124-2.112-2.082 2.627-4.671 3.732-9.53 3.47 7.161-3.186 10.742-6.24 13.882-11.275 0.749-1.205 1.487-2.507 2.237-3.963-6.258 6.382-13.442 8.199-21.154 6.82l-5.729 0.624c-0.187 0.481-0.352 0.952-0.54 1.434l0.099-0.022z" fill="url(#linearGradient3)"/>
 <path d="m108.06 149.88c1.234-3.175 2.512-6.393 3.812-9.633 1.256-3.109 2.534-6.24 3.856-9.371 1.322-3.13 2.666-6.294 4.032-9.447 1.388-3.207 2.821-6.403 4.286-9.589 1.443-3.153 2.898-6.283 4.385-9.37 0.529-1.117 1.08-2.233 1.619-3.3389 0.937-1.9157 1.884-3.8204 2.843-5.7032 0.055-0.0985 0.099-0.208 0.154-0.3065l-7.084-13.902c-0.11 0.186-0.231 0.3831-0.353 0.5582-1.652 2.682-3.294 5.4186-4.902 8.21-1.631 2.8242-3.228 5.7032-4.793 8.6259-1.311 2.463-2.6 4.9367-3.867 7.4547-0.253 0.504-0.496 1.018-0.749 1.522-1.543 3.163-2.931 6.195-4.198 9.14-1.432 3.317-2.688 6.491-3.779 9.502-0.727 1.981-1.377 3.886-1.983 5.725-0.496 1.565-0.958 3.141-1.4211 4.707-1.0577 3.678-1.9721 7.356-2.7213 11.056l7.1174 14.012c0.936-2.496 1.906-5.036 2.897-7.597 0.298-0.734 0.562-1.456 0.849-2.157v-0.098z" fill="url(#linearGradient4)"/>
 <path d="m97.041 146.15c-0.8924 4.466-1.5314 8.91-1.8509 13.355l-0.033 0.459c-2.2256-3.535-8.1639-6.984-8.1529-6.951 4.2637 6.13 7.4918 12.261 7.9656 18.172-2.2806 0.459-5.3986-0.208-9.0013-1.522 3.757 3.437 6.5774 4.379 7.6902 4.642-3.4595 0.218-7.0511 2.572-10.676 5.287 5.2994-2.146 9.5852-3 12.67-2.31-4.8697 13.683-9.7393 28.79-14.653 44.881 1.4984-0.438 2.3908-1.445 2.8866-2.791 0.8703-2.901 6.6324-22.003 15.645-46.961 0.2644-0.712 0.5177-1.434 0.7817-2.146 0.067-0.208 0.144-0.405 0.221-0.591 0.947-2.627 1.95-5.309 2.964-8.046 0.231-0.624 0.462-1.248 0.705-1.872 0-0.01 0.011-0.021 0.011-0.032l-7.1286-14.012c-0.022 0.142-0.0551 0.306-0.0881 0.471l0.044-0.033z" fill="url(#linearGradient5)"/>
 <path d="m134.06 94.266c-0.21 0.416-0.408 0.832-0.617 1.248-0.617 1.2588-1.234 2.5396-1.873 3.8532-0.683 1.4231-1.366 2.8681-2.06 4.3571-0.353 0.744-0.706 1.499-1.058 2.266-1.058 2.287-2.126 4.652-3.217 7.093-1.333 2.988-2.71 6.108-4.088 9.348-1.311 3.087-2.666 6.273-4.01 9.579-1.289 3.13-2.589 6.371-3.911 9.698-1.179 2.967-2.369 6.032-3.559 9.174-0.055 0.142-0.11 0.306-0.165 0.448-1.19 3.12-2.391 6.328-3.592 9.612-0.022 0.076-0.055 0.142-0.077 0.229l5.729-0.623c-0.11-0.022-0.231-0.033-0.341-0.055 6.842-0.843 15.975-5.933 21.814-12.26 2.71-2.89 5.167-6.306 7.437-10.301 1.686-2.967 3.283-6.273 4.803-9.918 1.323-3.185 2.59-6.644 3.813-10.377-1.576 0.821-3.372 1.434-5.355 1.85-0.352 0.076-0.705 0.142-1.069 0.208-0.363 0.065-0.727 0.12-1.101 0.164 0 0 0.011 0 0.011-0.011 6.39-2.441 10.411-7.148 13.331-12.917-1.675 1.138-4.407 2.627-7.679 3.339-0.441 0.098-0.893 0.175-1.356 0.251-0.11 0.011-0.231 0.033-0.341 0.055h0.022c2.225-0.919 4.087-1.959 5.707-3.174 0.352-0.263 0.694-0.526 1.003-0.81 0.495-0.427 0.958-0.876 1.421-1.336 0.286-0.306 0.562-0.613 0.837-0.93 0.639-0.756 1.234-1.566 1.785-2.441 0.165-0.274 0.341-0.537 0.496-0.821 0.22-0.405 0.418-0.81 0.617-1.1936 0.892-1.7733 1.608-3.3715 2.17-4.7618 0.287-0.7005 0.529-1.3354 0.749-1.9485 0.088-0.2408 0.166-0.4707 0.243-0.7005 0.231-0.6678 0.407-1.2589 0.551-1.7843 0.22-0.7882 0.352-1.4122 0.418-1.861-0.22 0.1642-0.463 0.3394-0.749 0.5036-1.928 1.1494-5.233 2.1784-7.899 2.671-0.034 0.0109-0.078 0.0109-0.122 0.0218-0.275 0.0438-0.528 0.0876-0.804 0.1205l0.132-0.0657-17.958 1.9594c0 0.0438-0.033 0.1204-0.066 0.1861l-0.022 0.0547z" fill="url(#linearGradient6)"/>
 <path d="m154.33 58.142c-1.598 2.4411-3.338 5.2106-5.233 8.3523-0.1 0.1532-0.21 0.3393-0.298 0.4926-1.619 2.7148-3.338 5.6922-5.167 8.9653-1.565 2.8242-3.195 5.8455-4.892 9.0966-1.476 2.8352-2.997 5.8455-4.572 9.031l17.958-1.9595c5.245-2.3973 7.58-4.5538 9.85-7.6954 0.595-0.8648 1.212-1.7624 1.807-2.7039 1.851-2.868 3.658-6.0206 5.277-9.1623 1.565-3.0322 2.942-6.0316 3.999-8.7463 0.672-1.7187 1.212-3.3169 1.587-4.729 0.33-1.2369 0.584-2.4192 0.782-3.5467-6.974 1.1932-15.534 2.3317-21.153 2.6053h0.055z" fill="url(#linearGradient7)"/>
 <path d="m142.65 119.77c-0.363 0.066-0.727 0.121-1.101 0.165 0.374-0.033 0.749-0.099 1.101-0.165z" fill="#BD202E"/>
 <path d="m142.65 119.77c-0.363 0.066-0.727 0.121-1.101 0.165 0.374-0.033 0.749-0.099 1.101-0.165z" fill="#BD202E" opacity=".35"/>
 <path d="m142.65 119.77c-0.363 0.066-0.727 0.121-1.101 0.165 0.374-0.033 0.749-0.099 1.101-0.165z" fill="url(#linearGradient8)"/>
 <path d="m145.63 110.69c0.11-0.011 0.231-0.033 0.342-0.055-0.111 0.011-0.221 0.044-0.342 0.055z" fill="#BD202E"/>
 <path d="m145.63 110.69c0.11-0.011 0.231-0.033 0.342-0.055-0.111 0.011-0.221 0.044-0.342 0.055z" fill="#BD202E" opacity=".35"/>
 <path d="m145.63 110.69c0.11-0.011 0.231-0.033 0.342-0.055-0.111 0.011-0.221 0.044-0.342 0.055z" fill="url(#linearGradient9)"/>
 <path d="m145.63 110.69c0.011-0.011 0.011 0 0 0 0.011-0.011 0.011 0 0 0z" fill="#BD202E"/>
 <path d="m145.63 110.69c0.011-0.011 0.011 0 0 0 0.011-0.011 0.011 0 0 0z" fill="#BD202E" opacity=".35"/>
 <linearGradient id="linearGradient1" x1="153.04" x2="192.83" y1="49.346" y2="38.091" gradientUnits="userSpaceOnUse">
  <stop stop-color="#F59723" offset="0"/>
  <stop stop-color="#F69822" offset=".312"/>
  <stop stop-color="#E87726" offset=".838"/>
 </linearGradient>
 <linearGradient id="linearGradient2" x1="65.85" x2="146" y1="227.13" y2="53.906" gradientUnits="userSpaceOnUse">
  <stop stop-color="#9C2063" offset=".323"/>
  <stop stop-color="#C82037" offset=".63"/>
  <stop stop-color="#CC2135" offset=".751"/>
  <stop stop-color="#E87726" offset="1"/>
 </linearGradient>
 <linearGradient id="linearGradient3" x1="93.108" x2="140.84" y1="214.29" y2="111.11" gradientUnits="userSpaceOnUse">
  <stop stop-color="#282661" offset="0"/>
  <stop stop-color="#662E8C" offset=".0955"/>
  <stop stop-color="#9E2064" offset=".788"/>
  <stop stop-color="#CC2032" offset=".949"/>
 </linearGradient>
 <linearGradient id="linearGradient4" x1="68.749" x2="148.89" y1="216.68" y2="43.454" gradientUnits="userSpaceOnUse">
  <stop stop-color="#9C2063" offset=".323"/>
  <stop stop-color="#C82037" offset=".63"/>
  <stop stop-color="#CC2135" offset=".751"/>
  <stop stop-color="#E87726" offset="1"/>
 </linearGradient>
 <linearGradient id="linearGradient5" x1="77.04" x2="119.15" y1="205.12" y2="114.11" gradientUnits="userSpaceOnUse">
  <stop stop-color="#282661" offset="0"/>
  <stop stop-color="#662E8C" offset=".0955"/>
  <stop stop-color="#9E2064" offset=".788"/>
  <stop stop-color="#CC2032" offset=".949"/>
 </linearGradient>
 <linearGradient id="linearGradient6" x1="86.821" x2="166.97" y1="225.04" y2="51.815" gradientUnits="userSpaceOnUse">
  <stop stop-color="#9C2063" offset=".323"/>
  <stop stop-color="#C82037" offset=".63"/>
  <stop stop-color="#CC2135" offset=".751"/>
  <stop stop-color="#E87726" offset="1"/>
 </linearGradient>
 <linearGradient id="linearGradient7" x1="80.876" x2="161.02" y1="235.32" y2="62.1" gradientUnits="userSpaceOnUse">
  <stop stop-color="#9C2063" offset=".323"/>
  <stop stop-color="#C82037" offset=".63"/>
  <stop stop-color="#CC2135" offset=".751"/>
  <stop stop-color="#E87726" offset="1"/>
 </linearGradient>
 <linearGradient id="linearGradient8" x1="92.161" x2="172.31" y1="227.51" y2="54.286" gradientUnits="userSpaceOnUse">
  <stop stop-color="#9C2063" offset=".323"/>
  <stop stop-color="#C82037" offset=".63"/>
  <stop stop-color="#CC2135" offset=".751"/>
  <stop stop-color="#E87726" offset="1"/>
 </linearGradient>
 <linearGradient id="linearGradient9" x1="91.545" x2="171.69" y1="227.22" y2="54.001" gradientUnits="userSpaceOnUse">
  <stop stop-color="#9C2063" offset=".323"/>
  <stop stop-color="#C82037" offset=".63"/>
  <stop stop-color="#CC2135" offset=".751"/>
  <stop stop-color="#E87726" offset="1"/>
 </linearGradient>
</svg>

<?xml version="1.0" encoding="UTF-8" standalone="no"?>
<svg
   width="256"
   height="256"
   title="Apache"
   viewBox="0 0 256 256"
   fill="none"
   id="apache"
   version="1.1"
   sodipodi:docname="Apache-Light.svg"
   inkscape:version="1.4.2 (ebf0e940, 2025-05-08)"
   xmlns:inkscape="http://www.inkscape.org/namespaces/inkscape"
   xmlns:sodipodi="http://sodipodi.sourceforge.net/DTD/sodipodi-0.dtd"
   xmlns="http://www.w3.org/2000/svg"
   xmlns:svg="http://www.w3.org/2000/svg">
  <defs
     id="defs53" />
  <sodipodi:namedview
     id="namedview53"
     pagecolor="#ffffff"
     bordercolor="#000000"
     borderopacity="0.25"
     inkscape:showpageshadow="2"
     inkscape:pageopacity="0.0"
     inkscape:pagecheckerboard="0"
     inkscape:deskcolor="#d1d1d1"
     inkscape:zoom="0.22701914"
     inkscape:cx="284.11701"
     inkscape:cy="-74.883552"
     inkscape:window-width="1512"
     inkscape:window-height="921"
     inkscape:window-x="0"
     inkscape:window-y="61"
     inkscape:window-maximized="0"
     inkscape:current-layer="apache" />
  <style
     id="style1">
#apache {
    rect {fill: #15191C}

    @media (prefers-color-scheme: light) {
        rect {fill: #F4F2ED}
    }
}
</style>
  <rect
     width="256"
     height="256"
     rx="40"
     fill="#15191C"
     id="rect1"
     style="fill:#f4f2ed;fill-opacity:1" />
  <path
     d="M162.044 33.8514C159.058 35.6028 154.089 40.5616 148.162 47.7536L153.594 57.9558C157.417 52.5372 161.295 47.6441 165.162 43.5063C165.47 43.1779 165.614 43.0246 165.614 43.0246C165.47 43.1779 165.305 43.353 165.162 43.5063C163.895 44.8856 160.05 49.3518 154.255 58.1748C159.841 57.9011 168.357 56.7626 175.408 55.5804C177.501 43.977 173.37 38.7226 173.37 38.7226C173.37 38.7226 168.126 30.2937 162.022 33.8951L162.044 33.8514Z"
     fill="url(#linearGradient1)"
     id="path1" />
  <path
     d="M143.755 119.552C143.061 119.673 142.356 119.804 141.618 119.925C141.618 119.925 141.607 119.925 141.607 119.936C141.981 119.881 142.345 119.826 142.708 119.771C143.05 119.695 143.403 119.629 143.755 119.552Z"
     fill="#BD202E"
     id="path2" />
  <path
     d="M143.755 119.552C143.061 119.673 142.356 119.804 141.618 119.925C141.618 119.925 141.607 119.925 141.607 119.936C141.981 119.881 142.345 119.826 142.708 119.771C143.05 119.695 143.403 119.629 143.755 119.552Z"
     fill="black"
     id="path3" />
  <path
     d="M145.628 110.686C145.617 110.686 145.617 110.686 145.617 110.697C145.727 110.686 145.848 110.664 145.959 110.642C146.421 110.576 146.873 110.5 147.314 110.39C146.763 110.489 146.212 110.587 145.628 110.686Z"
     fill="#BD202E"
     id="path4" />
  <path
     d="M145.628 110.686C145.617 110.686 145.617 110.686 145.617 110.697C145.727 110.686 145.848 110.664 145.959 110.642C146.421 110.576 146.873 110.5 147.314 110.39C146.763 110.489 146.212 110.587 145.628 110.686Z"
     fill="black"
     id="path5" />
  <path
     d="M137.585 84.3044C139.238 81.2284 140.913 78.229 142.598 75.3172C144.35 72.274 146.135 69.3403 147.931 66.4942C148.03 66.33 148.151 66.1549 148.25 65.9907C150.024 63.1993 151.82 60.5064 153.616 57.9449L148.184 47.7426C147.776 48.2352 147.369 48.7388 146.95 49.2642C145.375 51.2127 143.755 53.2926 142.08 55.5147C140.196 58.0106 138.268 60.6815 136.296 63.4839C134.489 66.0673 132.639 68.7711 130.788 71.5844C129.212 73.9707 127.648 76.4228 126.083 78.9405C126.028 79.0281 125.973 79.1266 125.918 79.2251L133.002 93.1273C134.5 90.117 136.043 87.1724 137.585 84.3044Z"
     fill="url(#linearGradient2)"
     id="path6" />
  <path
     d="M105.304 162.573C104.368 165.123 103.42 167.74 102.484 170.4C102.473 170.432 102.462 170.476 102.44 170.509C102.308 170.881 102.164 171.264 102.043 171.637C101.404 173.432 100.853 175.052 99.5863 178.719C101.669 179.66 103.343 182.156 104.93 184.98C104.765 182.058 103.553 179.31 101.228 177.186C111.507 177.646 120.398 175.063 124.915 167.597C125.323 166.929 125.698 166.24 126.039 165.485C123.957 168.112 121.368 169.217 116.509 168.955C123.67 165.769 127.251 162.715 130.391 157.68C131.14 156.475 131.878 155.173 132.628 153.717C126.37 160.099 119.186 161.916 111.474 160.537L105.745 161.161C105.558 161.642 105.393 162.113 105.205 162.595L105.304 162.573Z"
     fill="url(#linearGradient3)"
     id="path7" />
  <path
     d="M108.059 149.875C109.293 146.7 110.571 143.482 111.871 140.242C113.127 137.133 114.405 134.002 115.727 130.871C117.049 127.741 118.393 124.577 119.759 121.424C121.147 118.217 122.58 115.021 124.045 111.835C125.488 108.682 126.943 105.552 128.43 102.465C128.959 101.348 129.51 100.232 130.049 99.1261C130.986 97.2104 131.933 95.3057 132.892 93.4229C132.947 93.3244 132.991 93.2149 133.046 93.1164L125.962 79.2142C125.852 79.4002 125.731 79.5973 125.609 79.7724C123.957 82.4544 122.315 85.191 120.707 87.9824C119.076 90.8066 117.479 93.6856 115.914 96.6083C114.603 99.0713 113.314 101.545 112.047 104.063C111.794 104.567 111.551 105.081 111.298 105.585C109.755 108.748 108.367 111.78 107.1 114.725C105.668 118.042 104.412 121.216 103.321 124.227C102.594 126.208 101.944 128.113 101.338 129.952C100.842 131.517 100.38 133.093 99.9169 134.659C98.8592 138.337 97.9448 142.015 97.1956 145.715L104.313 159.727C105.249 157.231 106.219 154.691 107.21 152.13C107.508 151.396 107.772 150.674 108.059 149.973V149.875Z"
     fill="url(#linearGradient4)"
     id="path8" />
  <path
     d="M97.0413 146.153C96.1489 150.619 95.5099 155.063 95.1904 159.508L95.1574 159.967C92.9318 156.432 86.9935 152.983 87.0045 153.016C91.2682 159.146 94.4963 165.277 94.9701 171.188C92.6895 171.647 89.5715 170.98 85.9688 169.666C89.7258 173.103 92.5462 174.045 93.659 174.308C90.1995 174.526 86.6079 176.88 82.9831 179.595C88.2825 177.449 92.5683 176.595 95.6531 177.285C90.7834 190.968 85.9138 206.075 81 222.166C82.4984 221.728 83.3908 220.721 83.8866 219.375C84.7569 216.474 90.519 197.372 99.5313 172.414C99.7957 171.702 100.049 170.98 100.313 170.268C100.38 170.06 100.457 169.863 100.534 169.677C101.481 167.05 102.484 164.368 103.498 161.631C103.729 161.007 103.96 160.383 104.203 159.759C104.203 159.749 104.214 159.738 104.214 159.727L97.0854 145.715C97.0634 145.857 97.0303 146.021 96.9973 146.186L97.0413 146.153Z"
     fill="url(#linearGradient5)"
     id="path9" />
  <path
     d="M134.06 94.2657C133.85 94.6817 133.652 95.0977 133.443 95.5137C132.826 96.7725 132.209 98.0533 131.57 99.3669C130.887 100.79 130.204 102.235 129.51 103.724C129.157 104.468 128.804 105.223 128.452 105.99C127.394 108.277 126.326 110.642 125.235 113.083C123.902 116.071 122.525 119.191 121.147 122.431C119.836 125.518 118.481 128.704 117.137 132.01C115.848 135.14 114.548 138.381 113.226 141.708C112.047 144.675 110.857 147.74 109.667 150.882C109.612 151.024 109.557 151.188 109.502 151.33C108.312 154.45 107.111 157.658 105.91 160.942C105.888 161.018 105.855 161.084 105.833 161.171L111.562 160.548C111.452 160.526 111.331 160.515 111.221 160.493C118.063 159.65 127.196 154.56 133.035 148.233C135.745 145.343 138.202 141.927 140.472 137.932C142.158 134.965 143.755 131.659 145.275 128.014C146.598 124.829 147.865 121.37 149.088 117.637C147.512 118.458 145.716 119.071 143.733 119.487C143.381 119.563 143.028 119.629 142.664 119.695C142.301 119.76 141.937 119.815 141.563 119.859C141.563 119.859 141.574 119.859 141.574 119.848C147.964 117.407 151.985 112.7 154.905 106.931C153.23 108.069 150.498 109.558 147.226 110.27C146.785 110.368 146.333 110.445 145.87 110.521C145.76 110.532 145.639 110.554 145.529 110.576H145.551C147.776 109.657 149.638 108.617 151.258 107.402C151.61 107.139 151.952 106.876 152.261 106.592C152.756 106.165 153.219 105.716 153.682 105.256C153.968 104.95 154.244 104.643 154.519 104.326C155.158 103.57 155.753 102.76 156.304 101.885C156.469 101.611 156.645 101.348 156.8 101.064C157.02 100.659 157.218 100.254 157.417 99.8704C158.309 98.0971 159.025 96.4989 159.587 95.1086C159.874 94.4081 160.116 93.7732 160.336 93.1601C160.424 92.9193 160.502 92.6894 160.579 92.4596C160.81 91.7918 160.986 91.2007 161.13 90.6753C161.35 89.8871 161.482 89.2631 161.548 88.8143C161.328 88.9785 161.085 89.1537 160.799 89.3179C158.871 90.4673 155.566 91.4963 152.9 91.9889C152.866 91.9998 152.822 91.9998 152.778 92.0107C152.503 92.0545 152.25 92.0983 151.974 92.1312L152.106 92.0655L134.148 94.0249C134.148 94.0687 134.115 94.1453 134.082 94.211L134.06 94.2657Z"
     fill="url(#linearGradient6)"
     id="path10" />
  <path
     d="M154.332 58.1419C152.734 60.583 150.994 63.3525 149.099 66.4942C148.999 66.6474 148.889 66.8335 148.801 66.9868C147.182 69.7016 145.463 72.679 143.634 75.9521C142.069 78.7763 140.439 81.7976 138.742 85.0487C137.266 87.8839 135.745 90.8942 134.17 94.0797L152.128 92.1202C157.373 89.7229 159.708 87.5664 161.978 84.4248C162.573 83.56 163.19 82.6624 163.785 81.7209C165.636 78.8529 167.443 75.7003 169.062 72.5586C170.627 69.5264 172.004 66.527 173.061 63.8123C173.733 62.0936 174.273 60.4954 174.648 59.0833C174.978 57.8464 175.232 56.6641 175.43 55.5366C168.456 56.7298 159.896 57.8683 154.277 58.1419H154.332Z"
     fill="url(#linearGradient7)"
     id="path11" />
  <path
     d="M142.653 119.771C142.29 119.837 141.926 119.892 141.552 119.936C141.926 119.903 142.301 119.837 142.653 119.771Z"
     fill="#BD202E"
     id="path12" />
  <path
     opacity="0.35"
     d="M142.653 119.771C142.29 119.837 141.926 119.892 141.552 119.936C141.926 119.903 142.301 119.837 142.653 119.771Z"
     fill="#BD202E"
     id="path13" />
  <path
     d="M142.653 119.771C142.29 119.837 141.926 119.892 141.552 119.936C141.926 119.903 142.301 119.837 142.653 119.771Z"
     fill="url(#linearGradient8)"
     id="path14" />
  <path
     d="M145.628 110.686C145.738 110.675 145.859 110.653 145.97 110.631C145.859 110.642 145.749 110.675 145.628 110.686Z"
     fill="#BD202E"
     id="path15" />
  <path
     opacity="0.35"
     d="M145.628 110.686C145.738 110.675 145.859 110.653 145.97 110.631C145.859 110.642 145.749 110.675 145.628 110.686Z"
     fill="#BD202E"
     id="path16" />
  <path
     d="M145.628 110.686C145.738 110.675 145.859 110.653 145.97 110.631C145.859 110.642 145.749 110.675 145.628 110.686Z"
     fill="url(#linearGradient9)"
     id="path17" />
  <path
     d="M145.628 110.686C145.639 110.675 145.639 110.686 145.628 110.686C145.639 110.675 145.639 110.686 145.628 110.686Z"
     fill="#BD202E"
     id="path18" />
  <path
     opacity="0.35"
     d="M145.628 110.686C145.639 110.675 145.639 110.686 145.628 110.686C145.639 110.675 145.639 110.686 145.628 110.686Z"
     fill="#BD202E"
     id="path19" />
  <linearGradient
     id="linearGradient1"
     x1="153.045"
     y1="49.3465"
     x2="192.83"
     y2="38.0914"
     gradientUnits="userSpaceOnUse">
    <stop
       stop-color="#F59723"
       id="stop19" />
    <stop
       offset="0.312"
       stop-color="#F69822"
       id="stop20" />
    <stop
       offset="0.838"
       stop-color="#E87726"
       id="stop21" />
  </linearGradient>
  <linearGradient
     id="linearGradient2"
     x1="65.8495"
     y1="227.127"
     x2="145.995"
     y2="53.9059"
     gradientUnits="userSpaceOnUse">
    <stop
       offset="0.323"
       stop-color="#9C2063"
       id="stop22" />
    <stop
       offset="0.63"
       stop-color="#C82037"
       id="stop23" />
    <stop
       offset="0.751"
       stop-color="#CC2135"
       id="stop24" />
    <stop
       offset="1"
       stop-color="#E87726"
       id="stop25" />
  </linearGradient>
  <linearGradient
     id="linearGradient3"
     x1="93.1077"
     y1="214.289"
     x2="140.845"
     y2="111.113"
     gradientUnits="userSpaceOnUse">
    <stop
       stop-color="#282661"
       id="stop26" />
    <stop
       offset="0.0955"
       stop-color="#662E8C"
       id="stop27" />
    <stop
       offset="0.788"
       stop-color="#9E2064"
       id="stop28" />
    <stop
       offset="0.949"
       stop-color="#CC2032"
       id="stop29" />
  </linearGradient>
  <linearGradient
     id="linearGradient4"
     x1="68.7491"
     y1="216.675"
     x2="148.894"
     y2="43.4536"
     gradientUnits="userSpaceOnUse">
    <stop
       offset="0.323"
       stop-color="#9C2063"
       id="stop30" />
    <stop
       offset="0.63"
       stop-color="#C82037"
       id="stop31" />
    <stop
       offset="0.751"
       stop-color="#CC2135"
       id="stop32" />
    <stop
       offset="1"
       stop-color="#E87726"
       id="stop33" />
  </linearGradient>
  <linearGradient
     id="linearGradient5"
     x1="77.0399"
     y1="205.117"
     x2="119.147"
     y2="114.109"
     gradientUnits="userSpaceOnUse">
    <stop
       stop-color="#282661"
       id="stop34" />
    <stop
       offset="0.0955"
       stop-color="#662E8C"
       id="stop35" />
    <stop
       offset="0.788"
       stop-color="#9E2064"
       id="stop36" />
    <stop
       offset="0.949"
       stop-color="#CC2032"
       id="stop37" />
  </linearGradient>
  <linearGradient
     id="linearGradient6"
     x1="86.8211"
     y1="225.037"
     x2="166.966"
     y2="51.815"
     gradientUnits="userSpaceOnUse">
    <stop
       offset="0.323"
       stop-color="#9C2063"
       id="stop38" />
    <stop
       offset="0.63"
       stop-color="#C82037"
       id="stop39" />
    <stop
       offset="0.751"
       stop-color="#CC2135"
       id="stop40" />
    <stop
       offset="1"
       stop-color="#E87726"
       id="stop41" />
  </linearGradient>
  <linearGradient
     id="linearGradient7"
     x1="80.8764"
     y1="235.321"
     x2="161.021"
     y2="62.0998"
     gradientUnits="userSpaceOnUse">
    <stop
       offset="0.323"
       stop-color="#9C2063"
       id="stop42" />
    <stop
       offset="0.63"
       stop-color="#C82037"
       id="stop43" />
    <stop
       offset="0.751"
       stop-color="#CC2135"
       id="stop44" />
    <stop
       offset="1"
       stop-color="#E87726"
       id="stop45" />
  </linearGradient>
  <linearGradient
     id="linearGradient8"
     x1="92.1606"
     y1="227.507"
     x2="172.306"
     y2="54.2855"
     gradientUnits="userSpaceOnUse">
    <stop
       offset="0.323"
       stop-color="#9C2063"
       id="stop46" />
    <stop
       offset="0.63"
       stop-color="#C82037"
       id="stop47" />
    <stop
       offset="0.751"
       stop-color="#CC2135"
       id="stop48" />
    <stop
       offset="1"
       stop-color="#E87726"
       id="stop49" />
  </linearGradient>
  <linearGradient
     id="linearGradient9"
     x1="91.545"
     y1="227.222"
     x2="171.69"
     y2="54.0009"
     gradientUnits="userSpaceOnUse">
    <stop
       offset="0.323"
       stop-color="#9C2063"
       id="stop50" />
    <stop
       offset="0.63"
       stop-color="#C82037"
       id="stop51" />
    <stop
       offset="0.751"
       stop-color="#CC2135"
       id="stop52" />
    <stop
       offset="1"
       stop-color="#E87726"
       id="stop53" />
  </linearGradient>
</svg>
